assets/icons/google.svg

<svg width="20" height="20" viewBox="0 0 20 20" fill="none" xmlns="http://www.w3.org/2000/svg">
<g clip-path="url(#clip0_4_118)">
<path d="M19.3146 10.2222C19.3146 9.39995 19.2489 8.79995 19.1066 8.17773H9.85449V11.8888H15.2853C15.1758 12.8111 14.5846 14.1999 13.2706 15.1332L13.2522 15.2575L16.1775 17.5572L16.3802 17.5777C18.2416 15.8333 19.3146 13.2666 19.3146 10.2222Z" fill="#4285F4"/>
<path d="M9.85447 19.9997C12.5151 19.9997 14.7487 19.1108 16.3802 17.5775L13.2706 15.133C12.4385 15.7219 11.3216 16.133 9.85447 16.133C7.24857 16.133 5.03685 14.3886 4.24843 11.9775L4.13286 11.9875L1.09105 14.3764L1.05127 14.4886C2.67174 17.7552 6.00031 19.9997 9.85447 19.9997Z" fill="#34A853"/>
<path d="M4.24826 11.9773C4.04023 11.3551 3.91983 10.6883 3.91983 9.99948C3.91983 9.31055 4.04023 8.64391 4.23731 8.0217L4.2318 7.88918L1.15187 5.46191L1.0511 5.51055C0.383227 6.86613 0 8.38838 0 9.99948C0 11.6106 0.383227 13.1328 1.0511 14.4883L4.24826 11.9773Z" fill="#FBBC05"/>
<path d="M9.85447 3.86664C11.7049 3.86664 12.953 4.67775 13.6648 5.35557L16.4459 2.6C14.7378 0.988893 12.5151 0 9.85447 0C6.00031 0 2.67174 2.24443 1.05127 5.51107L4.23748 8.02221C5.03685 5.6111 7.24857 3.86664 9.85447 3.86664Z" fill="#EB4335"/>
</g>
<defs>
<clipPath id="clip0_4_118">
<rect width="20" height="20" fill="white"/>
</clipPath>
</defs>
</svg>

<svg xmlns="http://www.w3.org/2000/svg" width="20" height="20" fill="none">
  <g clip-path="url(#a)">
    <path fill="#4285F4" d="M19.3146 10.2222c0-.8223-.0657-1.4223-.208-2.0445H9.8545v3.7111h5.4308c-.1095.9223-.7007 2.3111-2.0147 3.2444l-.0184.1243 2.9253 2.2997.2027.0205c1.8614-1.7444 2.9344-4.3111 2.9344-7.3555Z"/>
    <path fill="#34A853" d="M9.8545 19.9997c2.6606 0 4.8942-.8889 6.5257-2.4222l-3.1096-2.4445c-.8321.5889-1.949 1-3.4161 1-2.606 0-4.8176-1.7444-5.606-4.1555l-.1156.01-3.0419 2.3889-.0397.1122c1.6204 3.2666 4.949 5.5111 8.8032 5.5111Z"/>
    <path fill="#FBBC05" d="M4.2483 11.9773c-.208-.6222-.3285-1.289-.3285-1.9778 0-.689.1204-1.3556.3175-1.9778l-.0055-.1325-3.08-2.4273-.1007.0487C.3832 6.866 0 8.3884 0 9.9994s.3832 3.1333 1.0511 4.4888l3.1972-2.511Z"/>
    <path fill="#EB4335" d="M9.8545 3.8666c1.8504 0 3.0985.8111 3.8103 1.489L16.4459 2.6C14.7378.9889 12.5151 0 9.8545 0 6.0003 0 2.6717 2.2444 1.0513 5.511l3.1862 2.5112c.7994-2.4111 3.011-4.1556 5.617-4.1556Z"/>
  </g>
  <defs>
    <clipPath id="a">
      <path fill="#fff" d="M0 0h20v20H0z"/>
    </clipPath>
  </defs>
</svg>
